X: 11101
T: Dug's Lugs, The
R: jig
M: 6/8
K: Dminor
A cdf|:d2A cdG|^GAD F=GA|G2D FGF|E2A cdf|
d2A cdG|^GAD F=GA|GFE FEC|1 D2A cdf:|2 D3 dfg||
a^ga f2d|g^fg e2c|f2a- afd|ge^c A3|
bab def|aef edc|Acd efc|d3 dfg|
a^ga fed|g^fg edc|fdf afd|ge^c A3|
bab def|aef edc|Acd efc|d2||

